colectivos/plp-search-code/img/svg/Check_1.svg

<?xml version="1.0" encoding="UTF-8"?>
<svg width="121px" height="120px" viewBox="0 0 121 120" version="1.1" xmlns="http://www.w3.org/2000/svg" xmlns:xlink="http://www.w3.org/1999/xlink">
    <title>Group 3</title>
    <g id="Desktop" stroke="none" stroke-width="1" fill="none" fill-rule="evenodd">
        <g id="LP-Desktop-Código_OK-check" transform="translate(-580.000000, -355.000000)">
            <g id="Modal-/-No-scroll-/-Desktop-/-Example_error" transform="translate(230.000000, 291.000000)">
                <g id="Group-2" transform="translate(32.000000, 64.000000)">
                    <g id="tick-green-hi" transform="translate(318.000000, 0.000000)">
                        <path d="M97.75625,19.625 L97.7125,19.625 C97.5113641,19.4940454 97.3026672,19.3750882 97.0875,19.26875 C97.0352751,19.2379457 96.9809784,19.2107974 96.925,19.1875 C96.74375,19.1 96.56875,19.025 96.3875,18.95625 L96.15625,18.86875 L95.625,18.6875 L95.3625,18.61875 C95.18125,18.58125 94.99375,18.55 94.8125,18.525 L94.56875,18.4875 C94.2970402,18.4549004 94.0236576,18.4375 93.75,18.4375 C90.4625,18.4375 88.55,20.59375 87.24375,22.5 L80.80625,30.66875 L80.80625,30.66875 L47.4375,73.0125 L29.04375,57.0125 C27.16875,55.1875 25.16875,54.2625 23.025,54.2625 C18.5943433,54.2659466 15.0034466,57.8568433 15,62.2875 C14.9546159,64.1205547 15.5147725,65.9174492 16.59375,67.4 C16.6402135,67.4692472 16.6902825,67.5360058 16.74375,67.6 L17.25,68.225 L17.325,68.3125 L42.275,95.91875 C43.525,97.35625 45.75,99.9875 49.3375,99.9875 C53.3875,99.9875 55.71875,96.6625 56.8375,95.03125 L65.53125,82.19375 L65.53125,82.1625 L99.375,30.4625 C100.424573,29.1180179 101.027689,27.4791146 101.1,25.775 C101.1,23.2908973 99.8407778,20.9761147 97.75625,19.625 Z" id="Path" fill="#428600" fill-rule="nonzero"></path>
                        <rect id="Rectangle" x="0" y="0" width="120" height="120"></rect>
                        <path d="M99.375,29.09375 L65.56875,80.78125 L65.56875,80.81875 L56.875,93.65 C55.73125,95.28125 53.4,98.60625 49.375,98.60625 C45.7875,98.60625 43.53125,95.975 42.3125,94.5375 L17.325,66.93125 L17.25,66.875 L16.74375,66.25 C16.6902825,66.1860058 16.6402135,66.1192472 16.59375,66.05 C15.6636162,64.7714796 15.1192238,63.2532538 15.025,61.675 C15.025,61.85 15.025,62.025 15.025,62.2 C14.9805306,64.0309962 15.5406649,65.8256227 16.61875,67.30625 C16.6652135,67.3754972 16.7152825,67.4422558 16.76875,67.50625 L17.275,68.13125 L17.35,68.21875 L42.275,95.8125 C43.525,97.25 45.75,99.88125 49.3375,99.88125 C53.3875,99.88125 55.71875,96.55625 56.8375,94.925 L65.53125,82.09375 L65.53125,82.05625 L99.375,30.375 C100.424684,29.0281855 101.027735,27.387276 101.1,25.68125 C101.1,25.45 101.1,25.225 101.06875,25 C100.868558,26.4883291 100.284886,27.8990497 99.375,29.09375 Z" id="Path" fill="#000000" fill-rule="nonzero" opacity="0.2"></path>
                        <path d="M43.80625,97.55625 L43.18125,96.93125 C43.38125,97.14375 43.5895833,97.3520833 43.80625,97.55625 Z" id="Path" fill="#E60000" fill-rule="nonzero"></path>
                    </g>
                </g>
            </g>
        </g>
    </g>
</svg>

<svg width="121" height="120" viewBox="0 0 121 120" xmlns="http://www.w3.org/2000/svg"><g id="Desktop" stroke="none" stroke-width="1" fill="none" fill-rule="evenodd"><g id="LP-Desktop-Código_OK-check" transform="translate(-580 -355)"><g id="Modal-/-No-scroll-/-Desktop-/-Example_error" transform="translate(230 291)"><g id="Group-2" transform="translate(32 64)"><g id="tick-green-hi" transform="translate(318)"><path d="M97.756 19.625h-.043a6.094 6.094 0 00-.625-.356 1.313 1.313 0 00-.163-.081 6.629 6.629 0 00-.537-.232l-.232-.087-.531-.181-.263-.07a8.423 8.423 0 00-.55-.093l-.243-.037a6.874 6.874 0 00-.819-.05c-3.287 0-5.2 2.156-6.506 4.062l-6.438 8.169-33.368 42.343-18.394-16c-1.875-1.825-3.875-2.75-6.019-2.75A8.031 8.031 0 0015 62.288a8.337 8.337 0 001.744 5.312l.506.625.075.088 24.95 27.606c1.25 1.437 3.475 4.069 7.063 4.069 4.05 0 6.38-3.326 7.5-4.957l8.693-12.837v-.032l33.844-51.7a8.181 8.181 0 001.725-4.687 7.33 7.33 0 00-3.344-6.15z" id="Path" fill="#428600" fill-rule="nonzero"/><path id="Rectangle" d="M0 0h120v120H0z"/><path d="M99.375 29.094L65.569 80.78v.038L56.875 93.65c-1.144 1.631-3.475 4.956-7.5 4.956-3.587 0-5.844-2.631-7.063-4.069L17.326 66.931l-.075-.056-.506-.625a8.275 8.275 0 01-1.719-4.575v.525a8.331 8.331 0 001.744 5.306l.506.625.075.088 24.925 27.594c1.25 1.437 3.475 4.068 7.063 4.068 4.05 0 6.38-3.325 7.5-4.956l8.693-12.831v-.038l33.844-51.681a8.2 8.2 0 001.725-4.694c0-.231 0-.456-.031-.681a8.662 8.662 0 01-1.694 4.094z" id="Path" fill="#000" fill-rule="nonzero" opacity=".2"/><path d="M43.806 97.556l-.625-.625c.2.213.409.421.625.625z" id="Path" fill="#E60000" fill-rule="nonzero"/></g></g></g></g></g></svg>
